X:1
T:Title
%%score { ( 1 3 ) | ( 2 4 ) }
L:1/8
M:3/4
K:C
V:1 treble nm="Grand Piano"
V:3 treble 
V:2 bass 
V:4 bass 
V:1
 z2 z2[Q:1/4=100] [EG]2 | [EG]4 [Ec]2 | c2 B2 [CFA]2 | G2- [DG]2 F2 | E4 G>G | A4 A2 | G2 E2 G2 | %7
 G2 F2 E2 | D4 G2 | [EG]4 [Ec]2 | [Fc]2 [B,FB]2 [CFA]2 | G2- [DG]2 F2 | E4 [D^F]>F | %13
 [G,DG]4 [G,D]2 | [G,CE]2 [DEB]2 [CEA]2 | [B,DG]4 [A,C^F]2 |[M:4/4] [G,B,G]6 G>G |[M:3/4] A4 B2 | %18
 G4 A>A | F4 [B,G]2 |[M:2/4] E4 |[M:1/4] G>G |[M:3/4] A4 A2 | A2 [^Fd]2 [Fc]2 | [GB]4 z2 | %25
[M:4/4] d6 G2 |[M:3/4] e4 B2 | c4 ^G>G | A4 E2 |[M:4/4] F6 [B,D]>[B,D] |[M:3/4] E2 F2 G2 | %31
[M:7/8] A2 [_Be]3 [Ad]2 |[M:3/4] [Gc]4 [FB]2 | [Ec]6 |] %34
V:2
 z2 z2 [C,G,]2 | [C,G,]4 [C,G,]2 | A,2 B,2 C,2 | z2 B,2 [C,G,B,]2 | [C,G,C]4 [E,C]>[E,C] | %5
 [F,C]4 [F,C]2 | [E,G,C]2 [C,G,C]2 [E,G,C]2 | [F,A,D]4 [^F,A,C]2 | [G,B,]4 [G,B,F]2 | %9
 [C,C]4 [C,G,]2 | [C,A,]2 C,2 C,2 | z2 B,2 [C,G,B,]2 | [C,G,C]4 z z/ D/ | B,,4 B,,2 | C,2 C,2 C,2 | %15
 D,4 D,2 |[M:4/4] G,,6[K:treble] [G,E]>[G,E] |[M:3/4] [G,F]4 [G,D]2 | [G,E]4[K:bass] ^C>C | %19
 [G,D]4 [G,,G,]2 |[M:2/4] [C,G,C]4 |[M:1/4] C>C |[M:3/4] [F,C]4 [E,G,^C]2 | %23
 [D,^F,D]2 [D,A,]2 [D,D]2 | [G,D]2 z2[K:treble] [G,A,^F]2 |[M:4/4] [G,B,F]6 G,2 | %26
[M:3/4] [CG]4 [^G,DF]2 | [A,CE]4 [E,B,D]>[E,B,D] | [F,C]4 [C,G,_B,]2 | %29
[M:4/4] [D,F,A,]6 [G,,G,]>[G,,G,] |[M:3/4] [G,C]4 z2 |[M:7/8] [F,CF]2 [F,^C]3 [F,D]2 | %32
[M:3/4] [G,E]4 [G,D]2 | [C,C]6 |] %34
V:3
 x6 | x6 | F4 z2 | [DF]2 z2 z2 | x6 | x6 | x6 | x6 | x6 | x6 | x6 | [DF]2 z2 z2 | x6 | x6 | x6 | %15
 x6 |[M:4/4] x8 |[M:3/4] x6 | x6 | x6 |[M:2/4] x4 |[M:1/4] x2 |[M:3/4] x6 | x6 | z2 G,2 c2 | %25
[M:4/4] x8 |[M:3/4] x6 | x6 | x6 |[M:4/4] x8 |[M:3/4] x6 |[M:7/8] x7 |[M:3/4] x6 | x6 |] %34
V:4
 x6 | x6 | C,4 z2 | C,4 z2 | x6 | x6 | x6 | x6 | x6 | x6 | x6 | C,4 z2 | z2 z2 [C,A,]2 | x6 | x6 | %15
 x6 |[M:4/4] x6[K:treble] x2 |[M:3/4] x6 | z2 z2[K:bass] G,2 | x6 |[M:2/4] x4 |[M:1/4] [E,G,]2 | %22
[M:3/4] x6 | x6 | x4[K:treble] x2 |[M:4/4] x8 |[M:3/4] x6 | x6 | x6 |[M:4/4] x8 | %30
[M:3/4] C,2 D,2 [E,G,C]2 |[M:7/8] x7 |[M:3/4] x6 | x6 |] %34

